X:1
T:O Lord, My God
T:Attr. Jacques Arcadelt (c 1510-1568)
T:From Psalms 25 & 26
T:O Lord, My God
C:Attr. Jacques Arcadelt (c 1510-1568)
Z:From Psalms 25 & 26
%%score [ ( 1 2 ) ( 3 4 ) ]
L:1/8
M:4/4
K:F
V:1 treble nm="P1"
V:2 treble 
V:3 bass nm="P2"
V:4 bass 
V:1
!mf! A2 | G2 A2 F2 G2 | A4 A2 c2 | c4 B2 A2 | G4 z2 A2 | (G2 A2) (F2 G2) | A4 (G2 A2) | (BA)GF G4 | %8
w: O|Lord, my God, to|thee do I|lift up my|soul. O|Lord, * in *|thee, in *|thee * have I trust-|
 F4!f! z2 F2 | c2 c2 d2 e2 | f4 e2 =c2 | c2 d2 e2 (f2- | fe)(dc) d3 d |!mf! c2 F2 c2 c2 | %14
w: ed. Let|me not be a-|sham- ed, Let|not my foes tri-|* * umph * o- ver|me. O lead me|
 d2 e2 f4 | e2 c2 c2 d2 | e2 (f2- fe)dc | d4 c4 |!f! z2 f2 f2 e2 | d4 ^c4 | =c4 d4 | d4 c2 BA | %22
w: in a plain|path; cast me not|off, nei- * * ther for-|sake me.|Teach me thy|way, Lord,|Lead me,|lead me in a|
 B4!mp! A2 A2 | c4 d2 c2 | B4 A4 | G2 A2 (BA)(GF) | G4!mf! F4 | (F2 A2) c4 | (d2 c2) B4 | %29
w: plain path. O|hide not thy|face, Hide|not thy face * far *|from me.|Lord * God,|Lord * God,|
 A4 G2 A2 | (BA)(GF) G4 |!mp! F8 | F8 | F8 |] %34
w: Hide not thy|face * far * from|me.|A-|men.|
V:2
 F2 | E2 C2 D2 E2 | F4 F2 F2 | F4 F2 F2 | E4 x2 F2 | (E2 C2) (D2 E2) | F4 (E2 F2) | F2 DD E4 | %8
 F4 x2 F2 | F2 F2 F2 A2 | A4 A2 E2 | E2 G2 G2 (A2 | G2) E2 G2 G2 | E2 F2 F2 F2 | F2 A2 A4 | %15
 A2 E2 E2 G2 | G2 (A2 G2) EE | G4 E4 | x2 A2 A2 A2 | F4 E4 | E4 F4 | F4 F2 FF | F4 F2 F2 | %23
 F4 F2 F2 | D4 F4 | C2 C2 D2 A,2 | C4 C4 | (C2 F2) E4 | F4 D4 | F4 C2 C2 | D2 A,2 C4 | A,8 | D8 | %33
 C8 |] %34
V:3
 C2 | C2 A,2 A,2 C2 | C4 C2 A,2 | A,4 D2 C2 | C4 z2 C2 | (C2 A,2) (A,2 C2) | C4 C4 | D2 A,A, C4 | %8
 A,4 z2 A,2 | A,2 A,2 A,2 ^C2 | D4 =C2 C2 | C2 =B,2 C2 C2- | C2 C2 =B,2 B,2 | C2 A,2 A,2 A,2 | %14
 A,2 ^C2 D4 | =C2 C2 C2 =B,2 | C2 C4 CC | (C2 =B,2) C4 | z2 C2 C2 C2 | A,4 A,4 | G,4 B,4 | %21
 B,4 A,2 CC | D4 C2 C2 | A,4 B,2 A,2 | G,4 A,4 | C2 F,2 F,2 F,2 | (F,2 E,2) F,4 | (A,2 F,2) G,4 | %28
 (B,2 A,2) G,4 | A,4 C2 F,2 | F,2 F,2 (F,2 E,2) | F,8 | B,8 | A,8 |] %34
V:4
 F,2 | C,2 F,2 D,2 C,2 | F,4 F,2 F,2 | F,4 B,,2 F,2 | C,4 x2 F,2 | (C,2 F,2) (D,2 C,2) | %6
 F,4 (C,2 F,2) | B,,2 D,D, C,4 | F,4 x2 F,2 | F,2 F,2 D,2 A,,2 | D,4 A,2 A,2 | A,2 G,2 C,2 (F,2 | %12
 C,2) A,2 G,2 G,2 | C,2 F,2 F,2 F,2 | D,2 A,,2 D,4 | A,2 A,2 A,2 G,2 | C,2 (F,2 C,2) A,A, | %17
 G,4 C,4 | x2 F,2 F,2 A,2 | D,4 A,,4 | C,4 B,,4 | B,,4 F,2 F,F, | B,,4 F,2 F,2 | F,4 B,,2 F,2 | %24
 G,4 D,4 | E,2 F,2 B,,2 D,2 | C,4 F,,4 | (F,2 D,2) C,4 | (B,,2 F,2) G,4 | D,4 E,2 F,2 | %30
 B,,2 D,2 C,4 | G,,8 | [B,,F,]8 | [F,,F,]8 |] %34

